X: 1855
T: Süzüp Süzüp de Ey Melek
C: Rahmi Bey
O: Turkey
F: http://compmusic.upf.edu/node/140
N: nihavent--sarki--yuruksemai_ii--suzup_suzup--rahmi_bey
N: makam= nihavent
N: form= sarki
N: usul= yuruksemai_ii = 6/8
M: 6/8
L: 1/16
K: C _B _e  
Q: 1/4=168
%%MIDI tuningsystem comma53
e3/2d/ef eded e4  | G3/2A/Bc deg2 d4  | \
w:  ARANAĞME  |   | 
c3/2_1/4B/cd cBc3/2B/ c3g  | 
w:   | 
fedc BAG^F G4  | e3/2d/ef ede3/2d/ e4  | \
w:   |   | 
e2d2 ^c2Bc d4  | 
w:   | 
B2A2 G2e2 c2A2  | fedc BAG^F G4  | e3/2d/ef eded e4  | 
w:   |   |  ARANAĞME  | 
G3/2A/Bc deg2 d4  | c3/2_1/4B/cd cBc3/2B/ c3g  | \
w:   |   | 
fedc BAG^F G4  | 
w:   | 
e3/2d/ef ede3/2d/ e4  | e2d2 ^c2Bc d4  | \
w:   |   | 
B2A2 G2e2 c2A2  | 
w:   | 
fedc BAG^F G4  | G2d4e2 d4  | c2B4A2 G4  | \
w:   |  Sü züp  sü züp   |  de  ey  me lek   | 
d2e4d2 ^c4  | 
w:  o  çeşm_ i  nîm   | 
d2e2 {f}edd4z2  | d2f4f2 g4  | f2e4d2 c4  | \
w:  hâ *  *  bı *  nı    |  Ne den  ya  rağ  |  bet_ et me mek   | 
B2d4A2 c4  | A2{c}B2 AG^FG A2z2  | 
w:  da ğıt ma ğa   |  se *  hâ *  *  bı *  nı    | 
D2G4A2 B4  | A2G4e2 d4  | A2B4G2 A4  | ^F2D2 B2AG G4  | \
w:  Ne den  ya  rağ  |  bet_ et me mek   |  da ğıt ma ğa   |  se hâ *  bı *  nı    | 
G2d4e2 d4  | 
w:  Sü züp  sü züp   | 
c2B4A2 G4  | d2e4d2 ^c4  | d2e2 {f}edd4z2  | \
w:  de  ey  me lek   |  o  çeşm_ i  nîm   |  hâ *  *  bı *  nı    | 
d2f4f2 g4  | f2e4d2 c4  | 
w:  Ne den  ya  rağ  |  bet_ et me mek   | 
B2d4A2 c4  | A2{c}B2 AG^FG A2z2  | D2G4A2 B4  | \
w:  da ğıt ma ğa   |  se *  hâ *  *  bı *  nı    |  Ne den  ya  rağ  | 
A2G4e2 d4  | A2B4G2 A4  | 
w:  bet_ et me mek   |  da ğıt ma ğa   | 
^F2D2 B2AG G4  | z14  | f2g2a2b3/2a/gafedc  | \
w:  se hâ *  bı *  nı    |  |  Gö *  *  nül   | 
baaggf2agf(3gfeed  | 
w:  be *  ğen *  *  *  di  *  *  sev  | 
d2^cde{^f}e/d/d4z4  | g3/2f/edc_1/4Bc2d2_1/4e2f2  | \
w:  di  *  *  *  *  *  *  pek   |  hi *  *  *  *  *  tâ  | 
g2a2bc'ag{b}agf_1/4edc  | 
w:  bı *  *  *  nı   | 
d2_1/4edgf2g2f(3gf_eed  | d2^cde{^f}e/d/d4z4  | \
w:  ce *  *  *  *  va *  bı  |  nı    | 
f2g2a2b3/2a/gafedc  | 
w:  Gö *  *  nül   | 
baaggffagf(3gfeed  | d2^cde{^f}e/d/d4z4  | 
w:  be *  ğen *  *  *  *  di  *  *  sev  |  di  *  *  *  *  *  *  pek   | 
g3/2f/edc_1/4Bc2d2_1/4e2f2  | g2a2bc'ag{b}agf_1/4edc  | 
w:  hi *  *  *  *  *  tâ  |  bı *  *  *  nı   | 
d2_1/4edgf2g2f(3gf_eed  | d2^cde{^f}e/d/d4z4  | z12  | 
w:  ce *  *  *  *  va *  bı  |  nı    |  | 
f2f4f2 f4  | f2g3fed e4  | d2e4e2 e4  | \
w:  İç_ im di  iç   |  şe râ *  bı *  nı   |  ko  bir  ya na   | 
g2fe dcBc d4  | 
w:  hi câ *  *  *  bı *  nı    | 
c2c4c2 c4  | B2A2 G2e2 d4  | A2B4G2 A4  | \
w:  Aç_ im di  aç   |  ni ka *  bı nı   |  a yân  et  â  | 
^F2D2 B2AG G4  | f2f4f2 f4  | 
w:  fi tâ *  bı *  nı    |  İç_ im di  iç   | 
f2g3fed e4  | d2e4e2 e4  | g2fe dcBc d4  | \
w:  şe râ *  bı *  nı   |  ko  bir  ya na   |  hi câ *  *  *  bı *  nı    | 
c2c4c2 c4  | 
w:  Aç_ im di  aç   | 
B2A2 G2e2 d4  | A2B4G2 A4  | ^F2D2 B2AG G4  | |


